public/images/hashed/4244099206461632e27d360c85cf87bc.svg

<?xml version="1.0" encoding="UTF-8"?>
<svg width="80px" height="80px" viewBox="0 0 80 80" version="1.1" xmlns="http://www.w3.org/2000/svg" xmlns:xlink="http://www.w3.org/1999/xlink">
    <!-- Generator: Sketch 64 (93537) - https://sketch.com -->
    <title>Icon-Architecture/64/Arch_Amazon-DynamoDB_64</title>
    <desc>Created with Sketch.</desc>
    <defs>
        <linearGradient x1="0%" y1="100%" x2="100%" y2="0%" id="linearGradient-1">
            <stop stop-color="#2E27AD" offset="0%"></stop>
            <stop stop-color="#527FFF" offset="100%"></stop>
        </linearGradient>
    </defs>
    <g id="Icon-Architecture/64/Arch_Amazon-DynamoDB_64" stroke="none" stroke-width="1" fill="none" fill-rule="evenodd">
        <g id="Icon-Architecture-BG/64/Database" fill="url(#linearGradient-1)">
            <rect id="Rectangle" x="0" y="0" width="80" height="80"></rect>
        </g>
        <path d="M52.0859525,54.8502506 C48.7479569,57.5490338 41.7449661,58.9752927 35.0439749,58.9752927 C28.3419838,58.9752927 21.336993,57.548042 17.9999974,54.8492588 L17.9999974,60.284515 L18.0009974,60.284515 C18.0009974,62.9952002 24.9999974,66.0163299 35.0439749,66.0163299 C45.0799617,66.0163299 52.0749525,62.9991676 52.0859525,60.290466 L52.0859525,54.8502506 Z M52.0869525,44.522272 L54.0869499,44.5113618 L54.0869499,44.522272 C54.0869499,45.7303271 53.4819507,46.8580436 52.3039522,47.8905439 C53.7319503,49.147199 54.0869499,50.3800499 54.0869499,51.257824 C54.0869499,51.263775 54.0859499,51.2687342 54.0859499,51.2746852 L54.0859499,60.284515 L54.0869499,60.284515 C54.0869499,65.2952658 44.2749628,68 35.0439749,68 C25.8349871,68 16.0499999,65.3071678 16.003,60.3192292 C16.003,60.31427 16,60.3093109 16,60.3043517 L16,51.2548485 C16,51.2528648 16.002,51.2498893 16.002,51.2469138 C16.005,50.3691398 16.3609995,49.1412479 17.7869976,47.8875684 C16.3699995,46.6358725 16.01,45.4149236 16.001,44.5440924 L16.002,44.5440924 C16.002,44.540125 16,44.5371495 16,44.5331822 L16,35.483679 C16,35.4807035 16.002,35.477728 16.002,35.4747525 C16.005,34.5969784 16.3619995,33.3690866 17.7879976,32.1173908 C16.3699995,30.8647031 16.01,29.6427623 16.001,28.7729229 L16.002,28.7729229 C16.002,28.7689556 16,28.7649882 16,28.7610209 L16,19.7125095 C16,19.709534 16.002,19.7065585 16.002,19.703583 C16.019,14.6997751 25.8199871,12 35.0439749,12 C40.2549681,12 45.2609615,12.8281823 48.7779569,14.2722941 L48.0129579,16.1052054 C44.7299622,14.7573015 40.0029684,13.9836701 35.0439749,13.9836701 C24.9999882,13.9836701 18.0009974,17.0047998 18.0009974,19.7174687 C18.0009974,22.4291458 24.9999882,25.4502754 35.0439749,25.4502754 C35.3149746,25.4532509 35.5799742,25.4502754 35.8479739,25.4403571 L35.9319738,27.4220435 C35.6359742,27.4339456 35.3399745,27.4339456 35.0439749,27.4339456 C28.3419838,27.4339456 21.336993,26.0066949 18,23.3079117 L18,28.7401923 L18.0009974,28.7401923 L18.0009974,28.7630046 C18.0109974,29.8034395 19.0779959,30.7119605 19.9719948,31.2892085 C22.6619912,33.0040913 27.4819849,34.1754485 32.8569778,34.4184481 L32.7659779,36.4001346 C27.3209851,36.1531677 22.5529914,35.0234675 19.4839954,33.2917235 C18.7279964,33.8570695 18.0009974,34.6217743 18.0009974,35.4886382 C18.0009974,38.2003153 24.9999882,41.2214449 35.0439749,41.2214449 C36.0289736,41.2214449 37.0069723,41.1887143 37.9519711,41.1232532 L38.0909709,43.1019642 C37.1009722,43.1704008 36.0749736,43.205115 35.0439749,43.205115 C28.3419838,43.205115 21.336993,41.7778644 18,39.0790811 L18,44.5113618 L18.0009974,44.5113618 C18.0109974,45.574609 19.0779959,46.4821381 19.9719948,47.060378 C23.0479907,49.0232196 28.8239831,50.2451604 35.0439749,50.2451604 L35.4839744,50.2451604 L35.4839744,52.2288305 L35.0439749,52.2288305 C28.7249832,52.2288305 22.9819908,51.0554896 19.4699954,49.0728113 C18.7179964,49.6371655 18.0009974,50.397903 18.0009974,51.257824 C18.0009974,53.9695011 24.9999882,56.9916225 35.0439749,56.9916225 C45.0799617,56.9916225 52.0749525,53.9744602 52.0859525,51.2647668 L52.0859525,51.2548485 L52.0859525,51.2538566 C52.0839525,50.391952 51.3639534,49.6312145 50.6099544,49.0668603 C50.1219551,49.3435823 49.5989558,49.6103859 49.0039566,49.8553692 L48.2379576,48.022458 C48.9639566,47.7239156 49.5939558,47.4015692 50.1109551,47.0623616 C51.0129539,46.4742034 52.0869525,45.5547723 52.0869525,44.522272 L52.0869525,44.522272 Z M60.6529412,30.0166841 L55.0489486,30.0166841 C54.717949,30.0166841 54.4069494,29.8540231 54.2219497,29.5822603 C54.0349499,29.3104975 53.99695,28.9643471 54.1189498,28.6598537 L57.5279453,20.1380068 L44.6189702,20.1380068 L38.6189702,32.0400276 L45.0009618,32.0400276 C45.3199614,32.0400276 45.619961,32.1917784 45.8089608,32.44668 C45.9959605,32.7025735 46.0509604,33.0308709 45.9539606,33.3333806 L40.2579681,51.089212 L60.6529412,30.0166841 Z M63.7219372,29.7121907 L38.7229701,55.539576 C38.5279703,55.7399267 38.2659707,55.8440694 38.000971,55.8440694 C37.8249713,55.8440694 37.6479715,55.7994368 37.4899717,55.7052124 C37.0899722,55.4691557 36.9069725,54.992083 37.0479723,54.5517083 L43.6339636,34.0236978 L37.0009724,34.0236978 C36.6539728,34.0236978 36.3329732,33.8461593 36.1499735,33.5535679 C35.9679737,33.2609766 35.9509737,32.8959813 36.1069735,32.5885124 L43.1069643,18.7028214 C43.2759641,18.3665893 43.6219636,18.1543366 44.0009631,18.1543366 L59.0009434,18.1543366 C59.331943,18.1543366 59.6429425,18.3179894 59.8279423,18.5887604 C60.0149421,18.861515 60.052942,19.2066736 59.9309422,19.5121588 L56.5219467,28.0330139 L62.9999381,28.0330139 C63.3999376,28.0330139 63.7629371,28.2710544 63.9199369,28.6360497 C64.0769367,29.0020368 63.9989368,29.4255504 63.7219372,29.7121907 L63.7219372,29.7121907 Z M19.4549955,60.6743062 C20.8719936,61.4727334 22.6559912,62.1442057 24.7569885,62.6678947 L25.2449878,60.7437346 C23.3459903,60.2706293 21.6859925,59.6497405 20.4429942,58.949505 L19.4549955,60.6743062 Z M24.7569885,46.7985335 L25.2449878,44.8753653 C23.3459903,44.4012681 21.6859925,43.7803794 20.4429942,43.0801438 L19.4549955,44.804945 C20.8719936,45.6033722 22.6549912,46.2748446 24.7569885,46.7985335 L24.7569885,46.7985335 Z M19.4549955,28.9355839 L20.4429942,27.2107827 C21.6839925,27.9110182 23.3449903,28.5309151 25.2449878,29.0060041 L24.7569885,30.9291723 C22.6529912,30.4044916 20.8699936,29.7330193 19.4549955,28.9355839 L19.4549955,28.9355839 Z" id="Amazon-DynamoDB_Icon_64_Squid" fill="#FFFFFF"></path>
    </g>
</svg>

<svg xmlns="http://www.w3.org/2000/svg" width="80" height="80"><defs><linearGradient id="a" x1="0%" x2="100%" y1="100%" y2="0%"><stop offset="0%" stop-color="#2E27AD"/><stop offset="100%" stop-color="#527FFF"/></linearGradient></defs><g fill="none" fill-rule="evenodd"><path fill="url(#a)" d="M0 0h80v80H0z"/><path fill="#FFF" d="M52.086 54.85c-3.338 2.699-10.341 4.125-17.042 4.125-6.702 0-13.707-1.427-17.044-4.126v5.436h.001c0 2.71 6.999 5.731 17.043 5.731 10.036 0 17.031-3.017 17.042-5.726v-5.44Zm.001-10.328 2-.01v.01c0 1.208-.605 2.336-1.783 3.369 1.428 1.256 1.783 2.489 1.783 3.367l-.001.017v9.01c0 5.01-9.811 7.715-19.042 7.715-9.209 0-18.994-2.693-19.041-7.68 0-.006-.003-.01-.003-.016v-9.05l.002-.007c.003-.878.359-2.106 1.785-3.36-1.417-1.251-1.777-2.472-1.786-3.343h.001l-.002-.01v-9.05l.002-.01c.003-.877.36-2.105 1.786-3.357-1.418-1.252-1.778-2.474-1.787-3.344h.001L16 28.76v-9.048l.002-.01C16.019 14.7 25.82 12 35.044 12c5.211 0 10.217.828 13.734 2.272l-.765 1.833c-3.283-1.348-8.01-2.121-12.969-2.121-10.044 0-17.043 3.02-17.043 5.733 0 2.712 6.999 5.733 17.043 5.733.271.003.536 0 .804-.01l.084 1.982c-.296.012-.592.012-.888.012-6.702 0-13.707-1.427-17.044-4.126v5.432h.001v.023c.01 1.04 1.077 1.949 1.971 2.526 2.69 1.715 7.51 2.886 12.885 3.13l-.091 1.981c-5.445-.247-10.213-1.377-13.282-3.108-.756.565-1.483 1.33-1.483 2.197 0 2.711 6.999 5.732 17.043 5.732.985 0 1.963-.032 2.908-.098l.139 1.979c-.99.068-2.016.103-3.047.103-6.702 0-13.707-1.427-17.044-4.126v5.432h.001c.01 1.064 1.077 1.971 1.971 2.55 3.076 1.962 8.852 3.184 15.072 3.184h.44v1.984h-.44c-6.319 0-12.062-1.174-15.574-3.156-.752.564-1.469 1.325-1.469 2.185 0 2.712 6.999 5.734 17.043 5.734 10.036 0 17.031-3.018 17.042-5.727v-.011c-.002-.862-.722-1.623-1.476-2.187-.488.277-1.011.543-1.606.788l-.766-1.833c.726-.298 1.356-.62 1.873-.96.902-.588 1.976-1.507 1.976-2.54Zm8.566-14.505h-5.604a1 1 0 0 1-.827-.435.982.982 0 0 1-.103-.922l3.409-8.522H44.619l-6 11.902h6.382c.319 0 .619.152.808.407a.989.989 0 0 1 .145.886L40.258 51.09l20.395-21.072Zm3.069-.305L38.723 55.54a1.006 1.006 0 0 1-1.233.165.988.988 0 0 1-.442-1.153l6.586-20.528h-6.633c-.347 0-.668-.178-.851-.47a.983.983 0 0 1-.043-.965l7-13.886a1 1 0 0 1 .894-.549h15c.33 0 .642.164.827.435a.984.984 0 0 1 .103.923l-3.41 8.521H63c.4 0 .763.238.92.603a.987.987 0 0 1-.198 1.076ZM19.455 60.674c1.417.799 3.201 1.47 5.302 1.994l.488-1.924c-1.899-.473-3.559-1.094-4.802-1.794l-.988 1.724ZM24.757 46.8l.488-1.924c-1.899-.474-3.559-1.095-4.802-1.795l-.988 1.725c1.417.798 3.2 1.47 5.302 1.994Zm-5.302-17.863.988-1.725c1.241.7 2.902 1.32 4.802 1.795l-.488 1.923c-2.104-.525-3.887-1.196-5.302-1.993Z"/></g></svg>
